X: 358
T:The New Year Alone
R:reel
C:Peter Holmes
Z:Andrew Le Blanc
M:4/4
L:1/8
Q:100
K:D
||: dAFA BAFA |dBAF EDB,D |A,2 A,B, CDEF | ABAd BAFA | dAFA BAFA |dBAF E
DB,D |A,2 A,B, CDEF |ABAF D4 :|
|: B2 GB dBGB |AGAB dBGB |ADFA BAFA | DEFA BAFA | B2 GB dBGB |AGAB dBGB|
Ac c2 BAFA | dfec d4:||
<end>
<start>
